static/img/platform/security/exploitable.svg

<svg xmlns="http://www.w3.org/2000/svg" xml:space="preserve" style="fill-rule:evenodd;clip-rule:evenodd;stroke-linejoin:round;stroke-miterlimit:2" viewBox="0 0 32 32"><path d="M32 16c0-8.831-7.169-16-16-16S0 7.169 0 16s7.169 16 16 16 16-7.169 16-16" style="fill:#fbed53;fill-opacity:.1"/><path d="M9.219 18.426c0-2.375.004-5.484.006-6.924a1.93 1.93 0 0 1 1.07-1.725l5.183-2.575a1.93 1.93 0 0 1 1.725.004l5.11 2.571a1.93 1.93 0 0 1 1.062 1.723v6.926c0 1.452-1.109 2.836-2.514 3.926-1.922 1.49-4.323 2.458-4.323 2.458a.64.64 0 0 1-.481 0s-2.402-.968-4.324-2.458c-1.405-1.09-2.514-2.474-2.514-3.926m1.286 0c0 1.103.95 2.082 2.017 2.909 1.431 1.11 3.151 1.909 3.776 2.181.624-.272 2.343-1.071 3.775-2.181 1.067-.827 2.016-1.806 2.016-2.909V11.5a.65.65 0 0 0-.354-.575l-5.109-2.57a.65.65 0 0 0-.576-.001l-5.182 2.575a.65.65 0 0 0-.357.575c-.002 1.44-.006 4.548-.006 6.922m5.678-1.617-1.25 1.251a.644.644 0 0 1-.91-.909l1.251-1.251-1.137-1.138a.643.643 0 1 1 .91-.909l1.136 1.137 1.251-1.251a.644.644 0 0 1 .91.91L17.093 15.9l1.365 1.365a.644.644 0 0 1-.91.909z" style="fill:#fbd153"/></svg>

<?xml version="1.0" encoding="UTF-8" standalone="no"?>
<!DOCTYPE svg PUBLIC "-//W3C//DTD SVG 1.1//EN" "http://www.w3.org/Graphics/SVG/1.1/DTD/svg11.dtd">
<svg width="100%" height="100%" viewBox="0 0 32 32" version="1.1" xmlns="http://www.w3.org/2000/svg" xmlns:xlink="http://www.w3.org/1999/xlink" xml:space="preserve" xmlns:serif="http://www.serif.com/" style="fill-rule:evenodd;clip-rule:evenodd;stroke-linejoin:round;stroke-miterlimit:2;">
    <path d="M32,16C32,7.169 24.831,0 16,0C7.169,0 0,7.169 0,16C0,24.831 7.169,32 16,32C24.831,32 32,24.831 32,16Z" style="fill:rgb(251,237,83);fill-opacity:0.1;"/>
    <path d="M9.219,18.426C9.219,16.051 9.223,12.942 9.225,11.502C9.226,10.771 9.641,10.103 10.295,9.777L15.478,7.202C16.022,6.931 16.661,6.933 17.203,7.206L22.313,9.777C22.964,10.104 23.375,10.771 23.375,11.5L23.375,18.426C23.375,19.878 22.266,21.262 20.861,22.352C18.939,23.842 16.538,24.81 16.538,24.81C16.383,24.873 16.211,24.873 16.057,24.81C16.057,24.81 13.655,23.842 11.733,22.352C10.328,21.262 9.219,19.878 9.219,18.426ZM10.505,18.426C10.505,19.529 11.455,20.508 12.522,21.335C13.953,22.445 15.673,23.244 16.298,23.516C16.922,23.244 18.641,22.445 20.073,21.335C21.14,20.508 22.089,19.529 22.089,18.426L22.089,11.5C22.089,11.257 21.952,11.035 21.735,10.925L16.626,8.355C16.444,8.264 16.231,8.264 16.05,8.354L10.868,10.929C10.65,11.038 10.512,11.26 10.511,11.504C10.509,12.944 10.505,16.052 10.505,18.426ZM16.183,16.809L14.933,18.06C14.681,18.311 14.274,18.311 14.023,18.06C13.772,17.809 13.772,17.402 14.023,17.151L15.274,15.9L14.137,14.762C13.886,14.512 13.886,14.105 14.137,13.853C14.388,13.602 14.795,13.602 15.047,13.853L16.183,14.99L17.434,13.739C17.685,13.488 18.093,13.488 18.344,13.739C18.595,13.991 18.595,14.398 18.344,14.649L17.093,15.9L18.458,17.265C18.708,17.515 18.708,17.923 18.458,18.174C18.207,18.425 17.799,18.425 17.548,18.174L16.183,16.809Z" style="fill:rgb(251,209,83);"/>
</svg>
